icons/evolvere-blue-folders-flat-vivid-dark-fallback/apps/64/software-properties.svg

<?xml version="1.0" encoding="UTF-8" standalone="no"?>
<!-- Created with Inkscape (http://www.inkscape.org/) -->

<svg
   xmlns:dc="http://purl.org/dc/elements/1.1/"
   xmlns:cc="http://creativecommons.org/ns#"
   xmlns:rdf="http://www.w3.org/1999/02/22-rdf-syntax-ns#"
   xmlns:svg="http://www.w3.org/2000/svg"
   xmlns="http://www.w3.org/2000/svg"
   xmlns:sodipodi="http://sodipodi.sourceforge.net/DTD/sodipodi-0.dtd"
   xmlns:inkscape="http://www.inkscape.org/namespaces/inkscape"
   width="64"
   height="64"
   id="svg13094"
   version="1.1"
   inkscape:version="0.91+devel r"
   sodipodi:docname="software-properties.svg">
  <sodipodi:namedview
     id="base"
     pagecolor="#ffffff"
     bordercolor="#666666"
     borderopacity="1.0"
     inkscape:pageopacity="0"
     inkscape:pageshadow="2"
     inkscape:zoom="11.313709"
     inkscape:cx="22.261154"
     inkscape:cy="34.37095"
     inkscape:document-units="px"
     inkscape:current-layer="svg13094"
     showgrid="true"
     inkscape:snap-bbox="true"
     inkscape:bbox-paths="true"
     inkscape:bbox-nodes="true"
     inkscape:snap-bbox-edge-midpoints="true"
     inkscape:snap-bbox-midpoints="true"
     inkscape:object-paths="true"
     inkscape:snap-intersection-paths="true"
     inkscape:object-nodes="true"
     inkscape:snap-smooth-nodes="true"
     inkscape:snap-midpoints="true"
     inkscape:snap-object-midpoints="true"
     inkscape:snap-center="true"
     showguides="true"
     inkscape:guide-bbox="true"
     inkscape:window-width="1920"
     inkscape:window-height="1023"
     inkscape:window-x="-10"
     inkscape:window-y="35"
     inkscape:window-maximized="1"
     inkscape:snap-global="true"
     fit-margin-top="0"
     fit-margin-left="0"
     fit-margin-right="0"
     fit-margin-bottom="0"
     showborder="true"
     inkscape:showpageshadow="false"
     inkscape:snap-page="true">
    <inkscape:grid
       type="xygrid"
       id="grid3075"
       empspacing="5"
       visible="true"
       enabled="true"
       snapvisiblegridlinesonly="true"
       originx="1.6362304e-08px"
       originy="18px" />
  </sodipodi:namedview>
  <defs
     id="defs13096" />
  <metadata
     id="metadata13099">
    <rdf:RDF>
      <cc:Work
         rdf:about="">
        <dc:format>image/svg+xml</dc:format>
        <dc:type
           rdf:resource="http://purl.org/dc/dcmitype/StillImage" />
        <dc:title></dc:title>
      </cc:Work>
    </rdf:RDF>
  </metadata>
  <path
     inkscape:connector-curvature="0"
     style="color:#000000;display:inline;overflow:visible;visibility:visible;fill:#758c8f;fill-opacity:1;fill-rule:nonzero;stroke:none;stroke-width:2.28571415;marker:none;enable-background:accumulate"
     d="m 0,4 0,30 0,28 2,2 30,0 30,0 2,-2 L 64,34 64,4 32,4 0,4 Z"
     id="path6498-3" />
  <path
     id="path6498"
     d="m 32,4 0,30 32,0 0,-30 z"
     style="color:#000000;display:inline;overflow:visible;visibility:visible;fill:#f2bb20;fill-opacity:1;fill-rule:nonzero;stroke:none;stroke-width:2.28571415;marker:none;enable-background:accumulate"
     inkscape:connector-curvature="0"
     sodipodi:nodetypes="ccccc" />
  <path
     id="path6505"
     d="m 32,34 -32,0 0,28 2,2 30,0 0,-30 z"
     style="color:#000000;display:inline;overflow:visible;visibility:visible;fill:#7a4ac1;fill-opacity:1;fill-rule:nonzero;stroke:none;stroke-width:2.28571415;marker:none;enable-background:accumulate"
     inkscape:connector-curvature="0" />
  <path
     inkscape:connector-curvature="0"
     id="path6502"
     d="M 32,0 32,4 64,4 64,1 62,0 32,0 Z"
     style="color:#000000;display:inline;overflow:visible;visibility:visible;fill:#ffed44;fill-opacity:1;fill-rule:nonzero;stroke:none;marker:none;enable-background:accumulate" />
  <path
     id="path6491"
     d="M 0,4 0,34 32,34 32,4 Z"
     style="color:#000000;display:inline;overflow:visible;visibility:visible;fill:#3786dd;fill-opacity:1;fill-rule:nonzero;stroke:none;stroke-width:2.28571415;marker:none;enable-background:accumulate"
     inkscape:connector-curvature="0" />
  <path
     id="path6509"
     d="m 32,34 0,30 30,0 2,-2 0,-28 z"
     style="color:#000000;display:inline;overflow:visible;visibility:visible;fill:#30a77b;fill-opacity:1;fill-rule:nonzero;stroke:none;stroke-width:2.28571415;marker:none;enable-background:accumulate"
     inkscape:connector-curvature="0"
     sodipodi:nodetypes="cccccc" />
  <path
     style="color:#000000;display:inline;overflow:visible;visibility:visible;fill:#7acfff;fill-opacity:1;fill-rule:nonzero;stroke:none;stroke-width:2.28571415;marker:none;enable-background:accumulate"
     d="M 2,0 1.6362304e-8,1 0,4 32,4 32,0 Z"
     id="path6495"
     inkscape:connector-curvature="0"
     sodipodi:nodetypes="cccccc" />
  <path
     sodipodi:nodetypes="cccc"
     inkscape:connector-curvature="0"
     id="path4386"
     d="M 0,3 1.6362304e-8,6 2,4 Z"
     style="color:#000000;display:inline;overflow:visible;visibility:visible;fill:#83d9ff;fill-opacity:1;fill-rule:nonzero;stroke:none;stroke-width:2.28571415;marker:none;enable-background:accumulate" />
  <path
     d="M 64,6 62,4 64,3 Z"
     id="path3028"
     style="opacity:1;fill:#f6d439;fill-opacity:1;stroke:none;stroke-width:1;stroke-linecap:butt;stroke-linejoin:miter;stroke-miterlimit:4;stroke-dasharray:none;stroke-dashoffset:0;stroke-opacity:1;marker:none"
     inkscape:connector-curvature="0"
     sodipodi:nodetypes="cccc" />
  <path
     inkscape:connector-curvature="0"
     style="color:#000000;fill:#404957;fill-opacity:0.09660106;fill-rule:nonzero;stroke:none;stroke-width:1;marker:none;visibility:visible;display:inline;overflow:visible;enable-background:accumulate;opacity:1;stroke-linecap:butt;stroke-linejoin:miter;stroke-miterlimit:4;stroke-dasharray:none;stroke-dashoffset:0;stroke-opacity:1"
     d="m 30,13 -2,5 -3.5,1.4375 -4.9375,-2.125 -4.25,4.25 L 17.4375,26.5 16,30 l -5,2 0,6 5,2 1.4375,3.5 -2.125,4.9375 4.25,4.25 L 24.5,50.5625 28,52 l 2,5 6,0 2,-5 3.5,-1.4375 4.9375,2.125 4.25,-4.25 L 48.5625,43.5 50,40 l 5,-2 0,-6 -5,-2 -1.4375,-3.5 2.125,-4.9375 -4.25,-4.25 L 41.5,19.4375 38,18 36,13 30,13 z m 3,15 c 3.865993,0 7,3.134007 7,7 0,3.865993 -3.134007,7 -7,7 -3.865993,0 -7,-3.134007 -7,-7 0,-0.241625 0.0074,-0.483431 0.03125,-0.71875 C 26.38972,30.751458 29.375632,28 33,28 z"
     id="path4155" />
  <path
     style="color:#000000;fill:#ebf2f9;fill-opacity:1;fill-rule:nonzero;stroke:none;stroke-width:2.28571415;marker:none;visibility:visible;display:inline;overflow:visible;enable-background:accumulate;opacity:1;stroke-linecap:butt;stroke-linejoin:miter;stroke-miterlimit:4;stroke-dasharray:none;stroke-dashoffset:0;stroke-opacity:1"
     d="m 29,12 -2,5 -3.5,1.4375 -4.9375,-2.125 -4.25,4.25 L 16.4375,25.5 15,29 l -5,2 0,6 5,2 1.4375,3.5 -2.125,4.9375 4.25,4.25 L 23.5,49.5625 27,51 l 2,5 6,0 2,-5 3.5,-1.4375 4.9375,2.125 4.25,-4.25 L 47.5625,42.5 49,39 l 5,-2 0,-6 -5,-2 -1.4375,-3.5 2.125,-4.9375 -4.25,-4.25 L 40.5,18.4375 37,17 35,12 29,12 z m 3,15 c 3.865993,0 7,3.134007 7,7 0,3.865993 -3.134007,7 -7,7 -1.449747,0 -2.789043,-0.43273 -3.90625,-1.1875 C 27.907549,39.686705 27.735359,39.548906 27.5625,39.40625 26.006769,38.122347 25,36.174621 25,34 c 0,-0.241625 0.0074,-0.483431 0.03125,-0.71875 0.04446,-0.437814 0.128621,-0.871067 0.25,-1.28125 0.0041,-0.0136 0.02712,-0.01769 0.03125,-0.03125 0.0029,-0.0095 -0.0029,-0.02176 0,-0.03125 0.01277,-0.04167 0.01773,-0.08366 0.03125,-0.125 0.06083,-0.184451 0.143329,-0.353949 0.21875,-0.53125 0.233375,-0.55176 0.514893,-1.062523 0.875,-1.53125 0.04852,-0.06318 0.105645,-0.126046 0.15625,-0.1875 0.346673,-0.42007 0.753134,-0.826852 1.1875,-1.15625 0.08636,-0.06528 0.16059,-0.126188 0.25,-0.1875 0.0385,-0.02657 0.08595,-0.03669 0.125,-0.0625 C 28.23221,28.10642 28.297021,28.046919 28.375,28 c 0.02813,-0.01705 0.06536,-0.01459 0.09375,-0.03125 0.09426,-0.05532 0.184235,-0.105285 0.28125,-0.15625 0.09024,-0.04727 0.188751,-0.0816 0.28125,-0.125 0.08355,-0.03933 0.164686,-0.08892 0.25,-0.125 0.05234,-0.02214 0.103267,-0.04161 0.15625,-0.0625 0.158557,-0.06243 0.304796,-0.136537 0.46875,-0.1875 0.04005,-0.01246 0.08465,-0.0195 0.125,-0.03125 0.176955,-0.05137 0.380084,-0.0875 0.5625,-0.125 0.0319,-0.0065 0.0617,-0.02516 0.09375,-0.03125 0.12304,-0.02354 0.249773,-0.04548 0.375,-0.0625 0.07365,-0.0099 0.144389,-0.0237 0.21875,-0.03125 C 31.516569,27.007352 31.758375,27 32,27 z"
     id="path3211"
     inkscape:connector-curvature="0" />
</svg>

<svg xmlns="http://www.w3.org/2000/svg" viewBox="0 0 64 64"><g color="#000"><path d="m0 4v30 28l2 2h30 30l2-2v-28-30h-32-32" fill="#758c8f"/><path d="m32 4v30h32v-30z" fill="#f2bb20"/><path d="m32 34h-32v28l2 2h30v-30" fill="#7a4ac1"/><path d="m32 0v4h32v-3l-2-1h-30" fill="#ffed44"/><path d="m0 4v30h32v-30" fill="#3786dd"/><path d="m32 34v30h30l2-2v-28z" fill="#30a77b"/><path d="m2 0l-2 1v3h32v-4" fill="#7acfff"/><path d="m0 3v3l2-2" fill="#83d9ff"/></g><path d="m64 6l-2-2 2-1" fill="#f6d439"/><g color="#000"><path d="m30 13l-2 5-3.5 1.438-4.938-2.125-4.25 4.25 2.125 4.938-1.438 3.5-5 2v6l5 2 1.438 3.5-2.125 4.938 4.25 4.25 4.938-2.125 3.5 1.438 2 5h6l2-5 3.5-1.438 4.938 2.125 4.25-4.25-2.125-4.938 1.438-3.5 5-2v-6l-5-2-1.438-3.5 2.125-4.938-4.25-4.25-4.938 2.125-3.5-1.438-2-5h-6m3 15c3.866 0 7 3.134 7 7 0 3.866-3.134 7-7 7-3.866 0-7-3.134-7-7 0-.242.007-.483.031-.719.358-3.53 3.344-6.281 6.969-6.281" fill-opacity=".097" fill="#404957"/><path d="m29 12l-2 5-3.5 1.438-4.938-2.125-4.25 4.25 2.125 4.938-1.438 3.5-5 2v6l5 2 1.438 3.5-2.125 4.938 4.25 4.25 4.938-2.125 3.5 1.438 2 5h6l2-5 3.5-1.438 4.938 2.125 4.25-4.25-2.125-4.938 1.438-3.5 5-2v-6l-5-2-1.438-3.5 2.125-4.938-4.25-4.25-4.938 2.125-3.5-1.438-2-5h-6m3 15c3.866 0 7 3.134 7 7 0 3.866-3.134 7-7 7-1.45 0-2.789-.433-3.906-1.188-.186-.126-.358-.264-.531-.406-1.556-1.284-2.563-3.232-2.563-5.406 0-.242.007-.483.031-.719.044-.438.129-.871.25-1.281.004-.014.027-.018.031-.031.003-.009-.003-.022 0-.031.013-.042.018-.084.031-.125.061-.184.143-.354.219-.531.233-.552.515-1.063.875-1.531.049-.063.106-.126.156-.188.347-.42.753-.827 1.188-1.156.086-.065.161-.126.25-.188.038-.027.086-.037.125-.063.076-.05.141-.109.219-.156.028-.017.065-.015.094-.031.094-.055.184-.105.281-.156.09-.047.189-.082.281-.125.084-.039.165-.089.25-.125.052-.022.103-.042.156-.063.159-.062.305-.137.469-.188.04-.012.085-.02.125-.031.177-.051.38-.087.563-.125.032-.006.062-.025.094-.031.123-.024.25-.045.375-.063.074-.01.144-.024.219-.031.235-.024.477-.031.719-.031" fill="#ebf2f9"/></g></svg>
